images/9604973.svg

<?xml version="1.0" encoding="UTF-8"?>
<svg xmlns="http://www.w3.org/2000/svg" xmlns:xlink="http://www.w3.org/1999/xlink" width="300pt" height="300pt" viewBox="0 0 300 300" version="1.1">
<defs>
<g>
<symbol overflow="visible" id="glyph0-0">
<path style="stroke:none;" d="M 0.453125 1.59375 L 0.453125 -6.34375 L 4.953125 -6.34375 L 4.953125 1.59375 Z M 0.953125 1.09375 L 4.453125 1.09375 L 4.453125 -5.84375 L 0.953125 -5.84375 Z M 0.953125 1.09375 "/>
</symbol>
<symbol overflow="visible" id="glyph0-1">
<path style="stroke:none;" d="M 0.890625 -6.5625 L 2.078125 -6.5625 L 4.984375 -1.078125 L 4.984375 -6.5625 L 5.84375 -6.5625 L 5.84375 0 L 4.65625 0 L 1.75 -5.484375 L 1.75 0 L 0.890625 0 Z M 0.890625 -6.5625 "/>
</symbol>
<symbol overflow="visible" id="glyph0-2">
<path style="stroke:none;" d="M 0.890625 -6.5625 L 1.765625 -6.5625 L 1.765625 -3.875 L 5 -3.875 L 5 -6.5625 L 5.890625 -6.5625 L 5.890625 0 L 5 0 L 5 -3.125 L 1.765625 -3.125 L 1.765625 0 L 0.890625 0 Z M 0.890625 -6.5625 "/>
</symbol>
<symbol overflow="visible" id="glyph0-3">
<path style="stroke:none;" d="M 3.546875 -5.953125 C 2.898438 -5.953125 2.382812 -5.710938 2 -5.234375 C 1.625 -4.753906 1.4375 -4.101562 1.4375 -3.28125 C 1.4375 -2.445312 1.625 -1.789062 2 -1.3125 C 2.382812 -0.832031 2.898438 -0.59375 3.546875 -0.59375 C 4.191406 -0.59375 4.703125 -0.832031 5.078125 -1.3125 C 5.453125 -1.789062 5.640625 -2.445312 5.640625 -3.28125 C 5.640625 -4.101562 5.453125 -4.753906 5.078125 -5.234375 C 4.703125 -5.710938 4.191406 -5.953125 3.546875 -5.953125 Z M 3.546875 -6.6875 C 4.460938 -6.6875 5.195312 -6.375 5.75 -5.75 C 6.300781 -5.132812 6.578125 -4.3125 6.578125 -3.28125 C 6.578125 -2.238281 6.300781 -1.410156 5.75 -0.796875 C 5.195312 -0.179688 4.460938 0.125 3.546875 0.125 C 2.617188 0.125 1.878906 -0.179688 1.328125 -0.796875 C 0.773438 -1.410156 0.5 -2.238281 0.5 -3.28125 C 0.5 -4.3125 0.773438 -5.132812 1.328125 -5.75 C 1.878906 -6.375 2.617188 -6.6875 3.546875 -6.6875 Z M 3.546875 -6.6875 "/>
</symbol>
</g>
</defs>
<g id="surface41033">
<rect x="0" y="0" width="300" height="300" style="fill:rgb(100%,100%,100%);fill-opacity:1;stroke:none;"/>
<path style="fill:none;stroke-width:1.2;stroke-linecap:butt;stroke-linejoin:miter;stroke:rgb(0%,0%,0%);stroke-opacity:1;stroke-miterlimit:10;" d="M 36.503906 220.988281 L 55.722656 210.324219 "/>
<path style="fill:none;stroke-width:1.2;stroke-linecap:butt;stroke-linejoin:miter;stroke:rgb(0%,0%,0%);stroke-opacity:1;stroke-miterlimit:10;" d="M 33.996094 216.464844 L 53.214844 205.804688 "/>
<path style="fill:none;stroke-width:1.2;stroke-linecap:butt;stroke-linejoin:miter;stroke:rgb(0%,0%,0%);stroke-opacity:1;stroke-miterlimit:10;" d="M 54.46875 208.0625 L 54.84375 186.089844 "/>
<path style="fill:none;stroke-width:1.2;stroke-linecap:butt;stroke-linejoin:miter;stroke:rgb(0%,0%,0%);stroke-opacity:1;stroke-miterlimit:10;" d="M 54.84375 186.089844 L 75.347656 181.746094 "/>
<path style="fill:none;stroke-width:1.2;stroke-linecap:butt;stroke-linejoin:miter;stroke:rgb(0%,0%,100%);stroke-opacity:1;stroke-miterlimit:10;" d="M 75.347656 181.746094 L 95.847656 177.40625 "/>
<path style="fill:none;stroke-width:1.2;stroke-linecap:butt;stroke-linejoin:miter;stroke:rgb(0%,0%,100%);stroke-opacity:1;stroke-miterlimit:10;" d="M 95.847656 177.40625 L 102.730469 175.984375 "/>
<path style="fill:none;stroke-width:1.2;stroke-linecap:butt;stroke-linejoin:miter;stroke:rgb(0%,0%,0%);stroke-opacity:1;stroke-miterlimit:10;" d="M 102.730469 175.984375 L 109.613281 174.566406 "/>
<path style="fill:none;stroke-width:1.2;stroke-linecap:butt;stroke-linejoin:miter;stroke:rgb(0%,0%,0%);stroke-opacity:1;stroke-miterlimit:10;" d="M 92.90625 186.738281 L 94.378906 182.070312 "/>
<path style="fill:none;stroke-width:1.2;stroke-linecap:butt;stroke-linejoin:miter;stroke:rgb(0%,0%,100%);stroke-opacity:1;stroke-miterlimit:10;" d="M 94.378906 182.070312 L 95.847656 177.40625 "/>
<path style=" stroke:none;fill-rule:nonzero;fill:rgb(100%,100%,100%);fill-opacity:1;" d="M 92.847656 171.90625 L 99.847656 171.90625 L 99.847656 182.90625 L 92.847656 182.90625 Z M 92.847656 171.90625 "/>
<g style="fill:rgb(0%,0%,100%);fill-opacity:1;">
  <use xlink:href="#glyph0-1" x="92.847656" y="180.569336"/>
</g>
<path style="fill:none;stroke-width:1.2;stroke-linecap:butt;stroke-linejoin:miter;stroke:rgb(0%,0%,0%);stroke-opacity:1;stroke-miterlimit:10;" d="M 109.613281 174.566406 L 105.644531 161.085938 "/>
<path style="fill:none;stroke-width:1;stroke-linecap:butt;stroke-linejoin:miter;stroke:rgb(0%,0%,0%);stroke-opacity:1;stroke-miterlimit:10;" d="M 112.5 154.101562 L 112.5 154.101562 M 109.757812 155.316406 L 111.335938 156.867188 M 107.015625 156.535156 L 110.171875 159.628906 M 104.273438 157.75 L 109.007812 162.394531 M 102.878906 158.367188 L 108.414062 163.800781 "/>
<path style="fill:none;stroke-width:1.2;stroke-linecap:butt;stroke-linejoin:miter;stroke:rgb(0%,0%,0%);stroke-opacity:1;stroke-miterlimit:10;" d="M 112.5 154.101562 L 131.71875 143.4375 "/>
<path style="fill:none;stroke-width:1.2;stroke-linecap:butt;stroke-linejoin:miter;stroke:rgb(0%,0%,0%);stroke-opacity:1;stroke-miterlimit:10;" d="M 112.125 176.074219 L 112.5 154.101562 "/>
<path style="fill:none;stroke-width:1.2;stroke-linecap:butt;stroke-linejoin:miter;stroke:rgb(0%,0%,0%);stroke-opacity:1;stroke-miterlimit:10;" d="M 96.421875 139.117188 L 112.5 154.101562 "/>
<path style="fill:none;stroke-width:1;stroke-linecap:butt;stroke-linejoin:miter;stroke:rgb(0%,0%,0%);stroke-opacity:1;stroke-miterlimit:10;" d="M 131.71875 143.4375 L 131.71875 143.4375 M 133.984375 145.40625 L 134.519531 144.511719 M 136.25 147.375 L 137.320312 145.585938 M 138.511719 149.339844 L 140.125 146.660156 M 140.777344 151.308594 L 142.925781 147.734375 M 143.042969 153.277344 L 145.726562 148.804688 M 145.308594 155.242188 L 148.527344 149.878906 M 147.570312 157.210938 L 151.328125 150.953125 M 148.566406 158.074219 L 152.558594 151.425781 "/>
<path style="fill:none;stroke-width:1.2;stroke-linecap:butt;stroke-linejoin:miter;stroke:rgb(100%,0%,0%);stroke-opacity:1;stroke-miterlimit:10;" d="M 127.515625 121.863281 L 129.617188 132.652344 "/>
<path style="fill:none;stroke-width:1.2;stroke-linecap:butt;stroke-linejoin:miter;stroke:rgb(0%,0%,0%);stroke-opacity:1;stroke-miterlimit:10;" d="M 129.617188 132.652344 L 131.71875 143.4375 "/>
<path style="fill:none;stroke-width:1.2;stroke-linecap:butt;stroke-linejoin:miter;stroke:rgb(0%,0%,0%);stroke-opacity:1;stroke-miterlimit:10;" d="M 150.5625 154.75 L 160.171875 149.417969 "/>
<path style="fill:none;stroke-width:1.2;stroke-linecap:butt;stroke-linejoin:miter;stroke:rgb(0%,0%,100%);stroke-opacity:1;stroke-miterlimit:10;" d="M 160.171875 149.417969 L 169.78125 144.085938 "/>
<path style="fill:none;stroke-width:1.2;stroke-linecap:butt;stroke-linejoin:miter;stroke:rgb(0%,0%,0%);stroke-opacity:1;stroke-miterlimit:10;" d="M 154.992188 158.207031 L 162.679688 153.941406 "/>
<path style="fill:none;stroke-width:1.2;stroke-linecap:butt;stroke-linejoin:miter;stroke:rgb(0%,0%,100%);stroke-opacity:1;stroke-miterlimit:10;" d="M 162.679688 153.941406 L 170.367188 149.675781 "/>
<path style="fill:none;stroke-width:1.2;stroke-linecap:butt;stroke-linejoin:miter;stroke:rgb(0%,0%,0%);stroke-opacity:1;stroke-miterlimit:10;" d="M 150.5625 154.75 L 150.1875 176.726562 "/>
<path style="fill:none;stroke-width:1.2;stroke-linecap:butt;stroke-linejoin:miter;stroke:rgb(0%,0%,100%);stroke-opacity:1;stroke-miterlimit:10;" d="M 169.78125 144.085938 L 188.625 155.402344 "/>
<path style=" stroke:none;fill-rule:nonzero;fill:rgb(100%,100%,100%);fill-opacity:1;" d="M 166.78125 138.585938 L 173.78125 138.585938 L 173.78125 149.585938 L 166.78125 149.585938 Z M 166.78125 138.585938 "/>
<g style="fill:rgb(0%,0%,100%);fill-opacity:1;">
  <use xlink:href="#glyph0-1" x="166.78125" y="147.249023"/>
</g>
<path style="fill:none;stroke-width:1.2;stroke-linecap:butt;stroke-linejoin:miter;stroke:rgb(0%,0%,100%);stroke-opacity:1;stroke-miterlimit:10;" d="M 188.625 155.402344 L 198.234375 150.070312 "/>
<path style="fill:none;stroke-width:1.2;stroke-linecap:butt;stroke-linejoin:miter;stroke:rgb(0%,0%,0%);stroke-opacity:1;stroke-miterlimit:10;" d="M 198.234375 150.070312 L 207.84375 144.738281 "/>
<path style=" stroke:none;fill-rule:nonzero;fill:rgb(100%,100%,100%);fill-opacity:1;" d="M 181.625 149.902344 L 195.625 149.902344 L 195.625 160.902344 L 181.625 160.902344 Z M 181.625 149.902344 "/>
<g style="fill:rgb(0%,0%,100%);fill-opacity:1;">
  <use xlink:href="#glyph0-1" x="181.625" y="158.56543"/>
  <use xlink:href="#glyph0-2" x="188.602539" y="158.56543"/>
</g>
<path style="fill:none;stroke-width:1.2;stroke-linecap:butt;stroke-linejoin:miter;stroke:rgb(0%,0%,0%);stroke-opacity:1;stroke-miterlimit:10;" d="M 210.429688 144.78125 L 210.617188 133.792969 "/>
<path style="fill:none;stroke-width:1.2;stroke-linecap:butt;stroke-linejoin:miter;stroke:rgb(100%,0%,0%);stroke-opacity:1;stroke-miterlimit:10;" d="M 210.617188 133.792969 L 210.804688 122.804688 "/>
<path style="fill:none;stroke-width:1.2;stroke-linecap:butt;stroke-linejoin:miter;stroke:rgb(0%,0%,0%);stroke-opacity:1;stroke-miterlimit:10;" d="M 205.257812 144.695312 L 205.445312 133.707031 "/>
<path style="fill:none;stroke-width:1.2;stroke-linecap:butt;stroke-linejoin:miter;stroke:rgb(100%,0%,0%);stroke-opacity:1;stroke-miterlimit:10;" d="M 205.445312 133.707031 L 205.632812 122.71875 "/>
<path style="fill:none;stroke-width:1.2;stroke-linecap:butt;stroke-linejoin:miter;stroke:rgb(0%,0%,0%);stroke-opacity:1;stroke-miterlimit:10;" d="M 207.84375 144.738281 L 226.6875 156.050781 "/>
<path style=" stroke:none;fill-rule:nonzero;fill:rgb(100%,100%,100%);fill-opacity:1;" d="M 204.21875 117.261719 L 212.21875 117.261719 L 212.21875 128.261719 L 204.21875 128.261719 Z M 204.21875 117.261719 "/>
<g style="fill:rgb(100%,0%,0%);fill-opacity:1;">
  <use xlink:href="#glyph0-3" x="204.21875" y="125.924805"/>
</g>
<path style="fill:none;stroke-width:1.2;stroke-linecap:butt;stroke-linejoin:miter;stroke:rgb(0%,0%,0%);stroke-opacity:1;stroke-miterlimit:10;" d="M 226.6875 156.050781 L 226.3125 178.027344 "/>
<path style="fill:none;stroke-width:1.2;stroke-linecap:butt;stroke-linejoin:miter;stroke:rgb(0%,0%,0%);stroke-opacity:1;stroke-miterlimit:10;" d="M 231.820312 158.335938 L 231.519531 175.917969 "/>
<path style="fill:none;stroke-width:1.2;stroke-linecap:butt;stroke-linejoin:miter;stroke:rgb(0%,0%,0%);stroke-opacity:1;stroke-miterlimit:10;" d="M 245.90625 145.386719 L 226.6875 156.050781 "/>
<path style="fill:none;stroke-width:1.2;stroke-linecap:butt;stroke-linejoin:miter;stroke:rgb(0%,0%,0%);stroke-opacity:1;stroke-miterlimit:10;" d="M 226.3125 178.027344 L 245.15625 189.339844 "/>
<path style="fill:none;stroke-width:1.2;stroke-linecap:butt;stroke-linejoin:miter;stroke:rgb(0%,0%,0%);stroke-opacity:1;stroke-miterlimit:10;" d="M 245.15625 189.339844 L 264.375 178.675781 "/>
<path style="fill:none;stroke-width:1.2;stroke-linecap:butt;stroke-linejoin:miter;stroke:rgb(0%,0%,0%);stroke-opacity:1;stroke-miterlimit:10;" d="M 244.570312 183.75 L 259.945312 175.21875 "/>
<path style="fill:none;stroke-width:1.2;stroke-linecap:butt;stroke-linejoin:miter;stroke:rgb(0%,0%,0%);stroke-opacity:1;stroke-miterlimit:10;" d="M 264.375 178.675781 L 264.75 156.699219 "/>
<path style="fill:none;stroke-width:1.2;stroke-linecap:butt;stroke-linejoin:miter;stroke:rgb(0%,0%,0%);stroke-opacity:1;stroke-miterlimit:10;" d="M 264.75 156.699219 L 245.90625 145.386719 "/>
<path style="fill:none;stroke-width:1.2;stroke-linecap:butt;stroke-linejoin:miter;stroke:rgb(0%,0%,0%);stroke-opacity:1;stroke-miterlimit:10;" d="M 260.203125 160.003906 L 245.128906 150.953125 "/>
<path style="fill:none;stroke-width:1.2;stroke-linecap:butt;stroke-linejoin:miter;stroke:rgb(0%,0%,0%);stroke-opacity:1;stroke-miterlimit:10;" d="M 150.1875 176.726562 L 130.96875 187.390625 "/>
<path style="fill:none;stroke-width:1.2;stroke-linecap:butt;stroke-linejoin:miter;stroke:rgb(0%,0%,0%);stroke-opacity:1;stroke-miterlimit:10;" d="M 130.96875 187.390625 L 112.125 176.074219 "/>
<path style="fill:none;stroke-width:1.2;stroke-linecap:butt;stroke-linejoin:miter;stroke:rgb(0%,0%,0%);stroke-opacity:1;stroke-miterlimit:10;" d="M 112.125 176.074219 L 92.90625 186.738281 "/>
<path style="fill:none;stroke-width:1;stroke-linecap:butt;stroke-linejoin:miter;stroke:rgb(0%,0%,0%);stroke-opacity:1;stroke-miterlimit:10;" d="M 112.125 176.074219 L 112.125 176.074219 M 111.554688 179.019531 L 112.597656 179.039062 M 110.980469 181.964844 L 113.066406 182 M 110.410156 184.910156 L 113.539062 184.964844 M 109.839844 187.855469 L 114.007812 187.925781 M 109.265625 190.800781 L 114.480469 190.890625 M 108.695312 193.746094 L 114.949219 193.851562 M 108.125 196.691406 L 115.421875 196.816406 M 107.871094 197.984375 L 115.628906 198.117188 "/>
<path style=" stroke:none;fill-rule:nonzero;fill:rgb(0%,0%,0%);fill-opacity:1;" d="M 92.90625 186.738281 L 85.136719 162.003906 L 78.164062 165.410156 Z M 92.90625 186.738281 "/>
<path style="fill:none;stroke-width:1.2;stroke-linecap:butt;stroke-linejoin:miter;stroke:rgb(0%,0%,0%);stroke-opacity:1;stroke-miterlimit:10;" d="M 81.648438 163.707031 L 74.527344 141.042969 "/>
<path style="fill:none;stroke-width:1.2;stroke-linecap:butt;stroke-linejoin:miter;stroke:rgb(0%,0%,0%);stroke-opacity:1;stroke-miterlimit:10;" d="M 74.527344 141.042969 L 96.421875 139.117188 "/>
<path style="fill:none;stroke-width:1.2;stroke-linecap:butt;stroke-linejoin:miter;stroke:rgb(0%,0%,0%);stroke-opacity:1;stroke-miterlimit:10;" d="M 76.261719 135.699219 L 93.777344 134.160156 "/>
<path style="fill:none;stroke-width:1.2;stroke-linecap:butt;stroke-linejoin:miter;stroke:rgb(0%,0%,0%);stroke-opacity:1;stroke-miterlimit:10;" d="M 61.914062 123.042969 L 74.527344 141.042969 "/>
<path style="fill:none;stroke-width:1.2;stroke-linecap:butt;stroke-linejoin:miter;stroke:rgb(0%,0%,0%);stroke-opacity:1;stroke-miterlimit:10;" d="M 96.421875 139.117188 L 105.703125 119.195312 "/>
<path style="fill:none;stroke-width:1.2;stroke-linecap:butt;stroke-linejoin:miter;stroke:rgb(0%,0%,0%);stroke-opacity:1;stroke-miterlimit:10;" d="M 105.703125 119.195312 L 93.089844 101.195312 "/>
<path style="fill:none;stroke-width:1.2;stroke-linecap:butt;stroke-linejoin:miter;stroke:rgb(0%,0%,0%);stroke-opacity:1;stroke-miterlimit:10;" d="M 100.207031 120.363281 L 90.113281 105.964844 "/>
<path style="fill:none;stroke-width:1.2;stroke-linecap:butt;stroke-linejoin:miter;stroke:rgb(0%,0%,0%);stroke-opacity:1;stroke-miterlimit:10;" d="M 105.703125 119.195312 L 116.609375 120.53125 "/>
<path style="fill:none;stroke-width:1.2;stroke-linecap:butt;stroke-linejoin:miter;stroke:rgb(100%,0%,0%);stroke-opacity:1;stroke-miterlimit:10;" d="M 116.609375 120.53125 L 127.515625 121.863281 "/>
<path style="fill:none;stroke-width:1.2;stroke-linecap:butt;stroke-linejoin:miter;stroke:rgb(0%,0%,0%);stroke-opacity:1;stroke-miterlimit:10;" d="M 93.089844 101.195312 L 71.195312 103.121094 "/>
<path style="fill:none;stroke-width:1.2;stroke-linecap:butt;stroke-linejoin:miter;stroke:rgb(0%,0%,0%);stroke-opacity:1;stroke-miterlimit:10;" d="M 93.089844 101.195312 L 97.730469 91.234375 "/>
<path style="fill:none;stroke-width:1.2;stroke-linecap:butt;stroke-linejoin:miter;stroke:rgb(100%,0%,0%);stroke-opacity:1;stroke-miterlimit:10;" d="M 97.730469 91.234375 L 102.371094 81.273438 "/>
<path style="fill:none;stroke-width:1.2;stroke-linecap:butt;stroke-linejoin:miter;stroke:rgb(0%,0%,0%);stroke-opacity:1;stroke-miterlimit:10;" d="M 71.195312 103.121094 L 61.914062 123.042969 "/>
<path style="fill:none;stroke-width:1.2;stroke-linecap:butt;stroke-linejoin:miter;stroke:rgb(0%,0%,0%);stroke-opacity:1;stroke-miterlimit:10;" d="M 74.953125 107.296875 L 67.527344 123.234375 "/>
<path style=" stroke:none;fill-rule:nonzero;fill:rgb(100%,100%,100%);fill-opacity:1;" d="M 95.371094 75.773438 L 110.371094 75.773438 L 110.371094 86.773438 L 95.371094 86.773438 Z M 95.371094 75.773438 "/>
<g style="fill:rgb(100%,0%,0%);fill-opacity:1;">
  <use xlink:href="#glyph0-3" x="95.371094" y="84.436523"/>
  <use xlink:href="#glyph0-2" x="102.712891" y="84.436523"/>
</g>
<path style=" stroke:none;fill-rule:nonzero;fill:rgb(100%,100%,100%);fill-opacity:1;" d="M 123.515625 116.363281 L 131.515625 116.363281 L 131.515625 127.363281 L 123.515625 127.363281 Z M 123.515625 116.363281 "/>
<g style="fill:rgb(100%,0%,0%);fill-opacity:1;">
  <use xlink:href="#glyph0-3" x="123.515625" y="125.026367"/>
</g>
<path style=" stroke:none;fill-rule:nonzero;fill:rgb(100%,100%,100%);fill-opacity:1;" d="M 104.75 192.550781 L 119.75 192.550781 L 119.75 203.550781 L 104.75 203.550781 Z M 104.75 192.550781 "/>
<g style="fill:rgb(100%,0%,0%);fill-opacity:1;">
  <use xlink:href="#glyph0-3" x="104.75" y="201.213867"/>
  <use xlink:href="#glyph0-2" x="112.091797" y="201.213867"/>
</g>
</g>
</svg>

<svg xmlns="http://www.w3.org/2000/svg" xmlns:xlink="http://www.w3.org/1999/xlink" width="300pt" height="300pt" viewBox="0 0 300 300"><defs><symbol overflow="visible"><path d="M.453 1.594v-7.938h4.5v7.938zm.5-.5h3.5v-6.938h-3.5zm0 0"/></symbol><symbol overflow="visible" id="a"><path d="M.89-6.563H2.08l2.906 5.485v-5.484h.86V0H4.656L1.75-5.484V0H.89zm0 0"/></symbol><symbol overflow="visible" id="b"><path d="M.89-6.563h.876v2.688H5v-2.688h.89V0H5v-3.125H1.766V0H.89zm0 0"/></symbol><symbol overflow="visible" id="c"><path d="M3.547-5.953c-.65 0-1.164.242-1.547.72-.375.48-.563 1.13-.563 1.952 0 .835.188 1.49.563 1.967.383.48.898.72 1.547.72.644 0 1.156-.24 1.53-.72.376-.476.564-1.132.564-1.968 0-.822-.187-1.474-.562-1.954-.375-.477-.887-.72-1.53-.72zm0-.734c.914 0 1.648.312 2.203.937.55.617.828 1.438.828 2.47 0 1.042-.277 1.87-.828 2.483-.555.617-1.29.922-2.203.922-.93 0-1.668-.305-2.22-.922C.774-1.41.5-2.237.5-3.28c0-1.033.273-1.853.828-2.47.55-.625 1.29-.938 2.22-.938zm0 0"/></symbol></defs><g><path fill="#fff" d="M0 0h300v300H0z"/><path d="M36.504 220.988l19.22-10.664M33.996 216.465l19.22-10.66M54.47 208.063l.374-21.973M54.844 186.09l20.504-4.344" stroke-width="1.2" stroke="#000" stroke-miterlimit="10" fill="none"/><path d="M75.348 181.746l20.5-4.34M95.848 177.406l6.882-1.422" stroke-width="1.2" stroke="#00f" stroke-miterlimit="10" fill="none"/><path d="M102.73 175.984l6.883-1.418M92.906 186.738l1.473-4.668" stroke-width="1.2" stroke="#000" stroke-miterlimit="10" fill="none"/><path d="M94.38 182.07l1.468-4.664" stroke-width="1.2" stroke="#00f" stroke-miterlimit="10" fill="none"/><path d="M92.848 171.906h7v11h-7zm0 0" fill="#fff"/><use xlink:href="#a" x="92.848" y="180.569" fill="#00f"/><path d="M109.613 174.566l-3.968-13.48" stroke-width="1.2" stroke="#000" stroke-miterlimit="10" fill="none"/><path d="M112.5 154.102m-2.742 1.214l1.578 1.55m-4.32-.33l3.156 3.093m-5.9-1.88l4.736 4.645m-6.13-4.028l5.536 5.434" stroke="#000" stroke-miterlimit="10" fill="none"/><path d="M112.5 154.102l19.22-10.665M112.125 176.074l.375-21.972M96.422 139.117l16.078 14.985" stroke-width="1.2" stroke="#000" stroke-miterlimit="10" fill="none"/><path d="M131.72 143.438m2.264 1.968l.536-.894m1.73 2.863l1.07-1.79m1.192 3.755l1.613-2.68m.652 4.65l2.15-3.576m.116 5.543l2.684-4.472m-.418 6.437l3.217-5.363m-.957 7.33l3.758-6.257m-2.762 7.12l3.993-6.647" stroke="#000" stroke-miterlimit="10" fill="none"/><path d="M127.516 121.863l2.1 10.79" stroke-width="1.2" stroke="#f00" stroke-miterlimit="10" fill="none"/><path d="M129.617 132.652l2.102 10.786M150.563 154.75l9.61-5.332" stroke-width="1.2" stroke="#000" stroke-miterlimit="10" fill="none"/><path d="M160.172 149.418l9.61-5.332" stroke-width="1.2" stroke="#00f" stroke-miterlimit="10" fill="none"/><path d="M154.992 158.207l7.688-4.266" stroke-width="1.2" stroke="#000" stroke-miterlimit="10" fill="none"/><path d="M162.68 153.94l7.687-4.264" stroke-width="1.2" stroke="#00f" stroke-miterlimit="10" fill="none"/><path d="M150.563 154.75l-.375 21.977" stroke-width="1.2" stroke="#000" stroke-miterlimit="10" fill="none"/><path d="M169.78 144.086l18.845 11.316" stroke-width="1.2" stroke="#00f" stroke-miterlimit="10" fill="none"/><path d="M166.78 138.586h7v11h-7zm0 0" fill="#fff"/><use xlink:href="#a" x="166.781" y="147.249" fill="#00f"/><path d="M188.625 155.402l9.61-5.332" stroke-width="1.2" stroke="#00f" stroke-miterlimit="10" fill="none"/><path d="M198.234 150.07l9.61-5.332" stroke-width="1.2" stroke="#000" stroke-miterlimit="10" fill="none"/><path d="M181.625 149.902h14v11h-14zm0 0" fill="#fff"/><g fill="#00f"><use xlink:href="#a" x="181.625" y="158.565"/><use xlink:href="#b" x="188.603" y="158.565"/></g><path d="M210.43 144.78l.187-10.987" stroke-width="1.2" stroke="#000" stroke-miterlimit="10" fill="none"/><path d="M210.617 133.793l.188-10.988" stroke-width="1.2" stroke="#f00" stroke-miterlimit="10" fill="none"/><path d="M205.258 144.695l.187-10.988" stroke-width="1.2" stroke="#000" stroke-miterlimit="10" fill="none"/><path d="M205.445 133.707l.188-10.988" stroke-width="1.2" stroke="#f00" stroke-miterlimit="10" fill="none"/><path d="M207.844 144.738l18.844 11.313" stroke-width="1.2" stroke="#000" stroke-miterlimit="10" fill="none"/><path d="M204.22 117.262h8v11h-8zm0 0" fill="#fff"/><use xlink:href="#c" x="204.219" y="125.925" fill="#f00"/><path d="M226.688 156.05l-.375 21.977M231.82 158.336l-.3 17.582M245.906 145.387l-19.22 10.664M226.313 178.027l18.843 11.313M245.156 189.34l19.22-10.664M244.57 183.75l15.375-8.53M264.375 178.676l.375-21.977M264.75 156.7l-18.844-11.313M260.203 160.004l-15.074-9.05M150.188 176.727l-19.22 10.664M130.97 187.39l-18.845-11.316M112.125 176.074l-19.22 10.664" stroke-width="1.2" stroke="#000" stroke-miterlimit="10" fill="none"/><path d="M112.125 176.074m-.57 2.946l1.043.02m-1.618 2.925l2.086.035m-2.656 2.91l3.13.055m-3.7 2.89l4.168.07m-4.742 2.876l5.214.09m-5.785 2.856l6.254.106m-6.825 2.84l7.297.124m-7.55 1.168l7.757.133" stroke="#000" stroke-miterlimit="10" fill="none"/><path d="M92.906 186.738l-7.77-24.734-6.972 3.406zm0 0"/><path d="M81.648 163.707l-7.12-22.664M74.527 141.043l21.895-1.926M76.262 135.7l17.515-1.54M61.914 123.043l12.613 18M96.422 139.117l9.28-19.922M105.703 119.195l-12.613-18M100.207 120.363l-10.094-14.398M105.703 119.195l10.906 1.336" stroke-width="1.2" stroke="#000" stroke-miterlimit="10" fill="none"/><path d="M116.61 120.53l10.906 1.333" stroke-width="1.2" stroke="#f00" stroke-miterlimit="10" fill="none"/><path d="M93.09 101.195l-21.895 1.926M93.09 101.195l4.64-9.96" stroke-width="1.2" stroke="#000" stroke-miterlimit="10" fill="none"/><path d="M97.73 91.234l4.64-9.96" stroke-width="1.2" stroke="#f00" stroke-miterlimit="10" fill="none"/><path d="M71.195 103.12l-9.28 19.923M74.953 107.297l-7.426 15.937" stroke-width="1.2" stroke="#000" stroke-miterlimit="10" fill="none"/><path d="M95.37 75.773h15v11h-15zm0 0" fill="#fff"/><g fill="#f00"><use xlink:href="#c" x="95.371" y="84.437"/><use xlink:href="#b" x="102.713" y="84.437"/></g><path d="M123.516 116.363h8v11h-8zm0 0" fill="#fff"/><use xlink:href="#c" x="123.516" y="125.026" fill="#f00"/><path d="M104.75 192.55h15v11h-15zm0 0" fill="#fff"/><g fill="#f00"><use xlink:href="#c" x="104.75" y="201.214"/><use xlink:href="#b" x="112.092" y="201.214"/></g></g></svg>
